polaris-icons/icons/new-icons/ReportMinor.svg

<svg width="20" height="20" viewBox="0 0 20 20" fill="none" xmlns="http://www.w3.org/2000/svg">
<path d="M8.5 12.25C8.5 11.8358 8.16421 11.5 7.75 11.5C7.33579 11.5 7 11.8358 7 12.25V14.25C7 14.6642 7.33579 15 7.75 15C8.16421 15 8.5 14.6642 8.5 14.25V12.25Z" fill="#4A4A4A"/>
<path d="M12.25 11.5C12.6642 11.5 13 11.8358 13 12.25V14.25C13 14.6642 12.6642 15 12.25 15C11.8358 15 11.5 14.6642 11.5 14.25V12.25C11.5 11.8358 11.8358 11.5 12.25 11.5Z" fill="#4A4A4A"/>
<path d="M10.75 14.25V10.75C10.75 10.3358 10.4142 10 10 10C9.58579 10 9.25 10.3358 9.25 10.75V14.25C9.25 14.6642 9.58579 15 10 15C10.4142 15 10.75 14.6642 10.75 14.25Z" fill="#4A4A4A"/>
<path fill-rule="evenodd" clip-rule="evenodd" d="M6.75 2.5C5.23122 2.5 4 3.73122 4 5.25V14.75C4 16.2688 5.23122 17.5 6.75 17.5H13.25C14.7688 17.5 16 16.2688 16 14.75V8.5C16 8.30109 15.921 8.11032 15.7803 7.96967L10.5303 2.71967C10.3897 2.57902 10.1989 2.5 10 2.5H6.75ZM5.5 5.25C5.5 4.55964 6.05964 4 6.75 4H9.25V7.5C9.25 8.4665 10.0335 9.25 11 9.25H14.5V14.75C14.5 15.4404 13.9404 16 13.25 16H6.75C6.05964 16 5.5 15.4404 5.5 14.75V5.25ZM13.4393 7.75L10.75 5.06066V7.5C10.75 7.63807 10.8619 7.75 11 7.75H13.4393Z" fill="#4A4A4A"/>
</svg>

<svg viewBox="0 0 20 20" xmlns="http://www.w3.org/2000/svg"><path d="M8.5 12.25a.75.75 0 0 0-1.5 0v2a.75.75 0 0 0 1.5 0v-2Z" fill="#5C5F62"/><path d="M12.25 11.5a.75.75 0 0 1 .75.75v2a.75.75 0 0 1-1.5 0v-2a.75.75 0 0 1 .75-.75Z" fill="#5C5F62"/><path d="M10.75 14.25v-3.5a.75.75 0 0 0-1.5 0v3.5a.75.75 0 0 0 1.5 0Z" fill="#5C5F62"/><path fill-rule="evenodd" d="M6.75 2.5a2.75 2.75 0 0 0-2.75 2.75v9.5a2.75 2.75 0 0 0 2.75 2.75h6.5a2.75 2.75 0 0 0 2.75-2.75v-6.25a.75.75 0 0 0-.22-.53l-5.25-5.25a.75.75 0 0 0-.53-.22h-3.25Zm-1.25 2.75c0-.69.56-1.25 1.25-1.25h2.5v3.5c0 .966.784 1.75 1.75 1.75h3.5v5.5c0 .69-.56 1.25-1.25 1.25h-6.5c-.69 0-1.25-.56-1.25-1.25v-9.5Zm7.94 2.5-2.69-2.69v2.44c0 .138.112.25.25.25h2.44Z" fill="#5C5F62"/></svg>
